X:85
T:Sally Gardens
M:4/4
L:1/8
R:reel
K:Gmaj
|: F | G2DG BAGB | dBeB dBAB | d2Bd efge | dBAB GEDE |
G2DG BAGB | dBeB dBAB | d2Bd efge | dBAB G3 :|
|: B | dggf g2dg | g2bg agfg | eaag a2ea | a2bg agfg|
dggf g2dg | g2bg agfg | d2Bd efge | dBAB G3 :|
